web-app/src/assets/SVG/menu.svg

<svg width="32" height="32" viewBox="0 0 32 32" fill="none" xmlns="http://www.w3.org/2000/svg">
<g clip-path="url(#clip0_713_1624)">
<path d="M5.33333 24H26.6667C27.4 24 28 23.4 28 22.6667C28 21.9333 27.4 21.3333 26.6667 21.3333H5.33333C4.6 21.3333 4 21.9333 4 22.6667C4 23.4 4.6 24 5.33333 24ZM5.33333 17.3333H26.6667C27.4 17.3333 28 16.7333 28 16C28 15.2667 27.4 14.6667 26.6667 14.6667H5.33333C4.6 14.6667 4 15.2667 4 16C4 16.7333 4.6 17.3333 5.33333 17.3333ZM4 9.33333C4 10.0667 4.6 10.6667 5.33333 10.6667H26.6667C27.4 10.6667 28 10.0667 28 9.33333C28 8.6 27.4 8 26.6667 8H5.33333C4.6 8 4 8.6 4 9.33333Z" fill="url(#paint0_linear_713_1624)"/>
</g>
<defs>
<linearGradient id="paint0_linear_713_1624" x1="16" y1="8" x2="16" y2="24" gradientUnits="userSpaceOnUse">
<stop stop-color="#9B51E0"/>
<stop offset="1" stop-color="#720ECF"/>
</linearGradient>
<clipPath id="clip0_713_1624">
<rect width="32" height="32" fill="white"/>
</clipPath>
</defs>
</svg>

<svg xmlns="http://www.w3.org/2000/svg" width="32" height="32" fill="none"><g clip-path="url(#a)"><path fill="url(#b)" d="M5.333 24h21.334C27.4 24 28 23.4 28 22.667c0-.734-.6-1.334-1.333-1.334H5.333c-.733 0-1.333.6-1.333 1.334C4 23.4 4.6 24 5.333 24Zm0-6.667h21.334c.733 0 1.333-.6 1.333-1.333s-.6-1.333-1.333-1.333H5.333C4.6 14.667 4 15.267 4 16s.6 1.333 1.333 1.333ZM4 9.333c0 .734.6 1.334 1.333 1.334h21.334c.733 0 1.333-.6 1.333-1.334C28 8.6 27.4 8 26.667 8H5.333C4.6 8 4 8.6 4 9.333Z"/></g><defs><linearGradient id="b" x1="16" x2="16" y1="8" y2="24" gradientUnits="userSpaceOnUse"><stop stop-color="#9B51E0"/><stop offset="1" stop-color="#720ECF"/></linearGradient><clipPath id="a"><path fill="#fff" d="M0 0h32v32H0z"/></clipPath></defs></svg>
